!!!!SEGMENT: pl-gd--ee-1638--002-031_marenzio-luca--motettorum-pro-festis-totius-anni-in-festo-s-andreae-cum-pervenisset-beatus.krn
!!!cenid: 15xx:1034
!!!COM: Marenzio, Luca
!!!COM-rismID: pe30003955
!!!CDT: ~1553-1599/08/22
!!!CNT: Italian
!!!GTL: Motettorum pro festis totius anni
!!!OTL: In festo S. Andreae/Cum pervenisset beatus
!!!OMV: 031
!!!PDT: 1588
!!!AGN:
!!!SMS-siglum: PL-GD
!!!SMS-shelfmark: Ee 1638
!!!SMS-shelfwork: 002-031 G
!!!SMS-variant:
!!!SMS-altvar:
!!!NIFC-rismSourceID: 990039238
!!!NIFC-islandoraID: pl-gd:57883
!!!URL-pdf-islandora: https://repozytorium.nifc.pl/islandora/object/pl-gd%3A57883/datastream/PDF/view
!!!URL-scan: https://polish.musicsources.pl/pl/lokalizacje/galeria/klocki-introligatorskie/655 @EN{Scan on Polish Music Sources Website} @PL{Skany w portalu Dziedzictwo Muzyki Polskiej w otwartym dostępie}
!!!ONB-nifc: UWAGA: Cantus: s. 631 (prawa), Altus: s. 479 (prawa), Tenor: s. 327 (prawa), Bassus: s. 175 (prawa)
!!!AIN: 1 alto 1 bass 1 soprn 1 tenor
!!!key:
**kern	**text	**kern	**text	**kern	**text	**kern	**text
*part4	*part4	*part3	*part3	*part2	*part2	*part1	*part1
*staff4	*staff4	*staff3	*staff3	*staff2	*staff2	*staff1	*staff1
*I"Basso	*	*I"Tenor	*	*I"Altus	*	*I"Cantus	*
*I'B	*	*I'T	*	*I'A	*	*I'C	*
*Ibass	*	*Itenor	*	*Ialto	*	*Isoprn	*
*ICvox	*	*ICvox	*	*ICvox	*	*ICvox	*
*IG	*	*	*	*	*	*	*
*clefC4	*	*clefC3	*	*clefC2	*	*clefG2	*
*k[]	*	*k[]	*	*k[]	*	*k[]	*
*C:	*	*C:	*	*C:	*	*C:	*
*M2/1	*	*M2/1	*	*M2/1	*	*M2/1	*
*met(C|)	*	*met(C|)	*	*met(C|)	*	*met(C|)	*
=1-	=1-	=1-	=1-	=1-	=1-	=1-	=1-
!	!	!	!	!	!	!LO:TX:a:B:t=Prestissimo	!
0r	.	0r	.	0r	.	1dd	CVm
.	.	.	.	.	.	2dd\	per-
.	.	.	.	.	.	2dd\	-ue-
=2-	=2-	=2-	=2-	=2-	=2-	=2-	=2-
0r	.	0r	.	1r	.	1cc	-niſ-
.	.	.	.	1g	CVm	2b/	-ſet
.	.	.	.	.	.	2g/	be-
=3-	=3-	=3-	=3-	=3-	=3-	=3-	=3-
0r	.	0r	.	2g\	per-	1dd	-a-
.	.	.	.	2g\	-ue-	.	.
.	.	.	.	1f	-niſ-	2a/	-tus
.	.	.	.	.	.	2cc\	An-
=4-	=4-	=4-	=4-	=4-	=4-	=4-	=4-
0r	.	1r	.	2e/	-ſet	1ee	-dre-
.	.	.	.	2c/	be-	.	.
.	.	2r	.	1g	-a-	2dd\	-as
.	.	2G/	Be-	.	.	2b/	ad
=5-	=5-	=5-	=5-	=5-	=5-	=5-	=5-
0r	.	1d	-a-	2f\	-tus	0a	lo-
.	.	.	.	2a\	An-	.	.
.	.	2A/	-tus	1cc	-dre-	.	.
.	.	2c/	An-	.	.	.	.
=6-	=6-	=6-	=6-	=6-	=6-	=6-	=6-
0r	.	1e	-dre-	2b\	-as	1g	-cum
.	.	.	.	2g\	ad	.	.
.	.	1d	-as	4a\	lo-	2r	.
.	.	.	.	4f\	.	.	.
*	*	*	*	*	*	*	*ij
.	.	.	.	2.a\	.	2dd\	Cum
=7-	=7-	=7-	=7-	=7-	=7-	=7-	=7-
0r	.	1B	ad	.	.	2dd\	per-
.	.	.	.	4g\	.	.	.
.	.	.	.	2.g\	.	2dd\	-ve-
.	.	1A	lo-	.	.	1cc	-nis-
.	.	.	.	8f\	.	.	.
.	.	.	.	8e\	.	.	.
.	.	.	.	2f#X\	.	.	.
=8-	=8-	=8-	=8-	=8-	=8-	=8-	=8-
!	!	!	!	!LO:SIC:v:t=custos g	!	!	!
1G	CVm	4G/	-cum	0g	-cum	2b/	-set
!	!	!	!	!LO:LB:g=original	!	!	!
.	.	4A/	.	.	.	.	.
.	.	4B/	.	.	.	2g/	be-
.	.	4c/	.	.	.	.	.
2G/	per-	4B/	.	.	.	1dd	-a-
.	.	4c/	.	.	.	.	.
2G/	-ue-	4d\	.	.	.	.	.
.	.	4B/	.	.	.	.	.
=9-	=9-	=9-	=9-	=9-	=9-	=9-	=9-
1F	-niſ-	1c	.	1r	.	2a/	-tus
.	.	.	.	.	.	2cc\	An-
*	*	*	*	*	*ij	*	*
2E/	-ſet	1r	.	1g	Cum	1ee	-dre-
2C/	be-	.	.	.	.	.	.
=10-	=10-	=10-	=10-	=10-	=10-	=10-	=10-
1G	-a-	1d	cu(m)	2g\	per-	2dd\	-as
.	.	.	.	2g\	-ve-	2b/	ad
2D/	-tus	2d\	pe-	1fny	-nis-	2.a/	lo-
!	!	!LO:SIC:v:t=custos c	!	!	!	!	!
2F/	An-	2d\	-ruc-	.	.	.	.
!	!	!LO:LB:g=original	!	!	!	!	!
.	.	.	.	.	.	4b/	-cum
=11-	=11-	=11-	=11-	=11-	=11-	=11-	=11-
1A	-dre-	1c	-niſ-	2e/	-set	4cc\	Cum
!	!	!	!	!	!	!LO:SIC:v:t=custos ee	!
.	.	.	.	.	.	4dd\	per-
!	!	!	!	!	!	!LO:LB:g=original	!
.	.	.	.	2c/	be-	4ee\	-ve-
.	.	.	.	.	.	4ff\	-nis-
*	*	*	*	*	*	*lig	*
2G/	-as	2B/	-ſet	1g	-a-	1gg	-set
2E/	ad	2G/	be-	.	.	.	.
=12-	=12-	=12-	=12-	=12-	=12-	=12-	=12-
*	*	*	*	*	*	*col	*
1.D	lo-	1d	-a-	2d/	-tus	2.ff\	.
.	.	.	.	2f\	An-	.	.
*	*	*	*	*	*	*Xlig	*
.	.	.	.	.	.	4ee\	.
*	*	*	*	*	*	*Xcol	*
.	.	2A/	-tus	1a	-dre-	4ff\	be-
.	.	.	.	.	.	4dd\	-a-
2C/	-cum	2c/	An-	.	.	2.ee\	-tus
=13-	=13-	=13-	=13-	=13-	=13-	=13-	=13-
!LO:SIC:v:t=custos D	!	!	!	!	!	!	!
1D	u-	1e	-dre-	1g	-as	.	.
!LO:LB:g=original	!	!	!	!	!	!	!
.	.	.	.	.	.	8dd\	An-
.	.	.	.	.	.	8cc\	-dre-
.	.	.	.	.	.	4b/	-as
.	.	.	.	.	.	4cc\	ad
1D	-bi	2d\	-as	2f#X\	ad	0dd	lo-
.	.	2B/	ad	2.g\	lo-	.	.
=14-	=14-	=14-	=14-	=14-	=14-	=14-	=14-
1d	crux	1A	lu-	.	.	.	.
.	.	.	.	8fny\	.	.	.
.	.	.	.	8e\	.	.	.
.	.	.	.	2f#X\	.	.	.
2B\	pa-	1G	-cum	0g	-cum	1b	-cum
*	*	*	*	*	*Xij	*	*Xij
1c\	-ra-	.	.	.	.	.	.
=15-	=15-	=15-	=15-	=15-	=15-	=15-	=15-
.	.	1r	.	.	.	2r	.
2B\	-ta	.	.	.	.	1g	u-
1A	e-	1c	u-	1r	.	.	.
.	.	.	.	.	.	2g/	-bi
=16-	=16-	=16-	=16-	=16-	=16-	=16-	=16-
1G	-rat	1c	-bi	0r	.	1.cc	crux
1r	.	1g	crux	.	.	.	.
.	.	.	.	.	.	2b/	pa-
=17-	=17-	=17-	=17-	=17-	=17-	=17-	=17-
1r	.	2e\	pa-	1c	u-	2cc\	-ra-
.	.	1f	-ra-	.	.	2a/	-ta
*	*ij	*	*	*	*	*	*
1G	u-	.	.	1c	-bi	2.g/	e-
.	.	2e\	-ta	.	.	.	.
.	.	.	.	.	.	4a/	.
=18-	=18-	=18-	=18-	=18-	=18-	=18-	=18-
1G	-bi	1d	e-	0g	crux	4b/	.
.	.	.	.	.	.	4cc\	.
.	.	.	.	.	.	2dd\	.
1c	crux	1d	-rat	.	.	2b/	-rat
*	*	*	*	*	*	*	*ij
.	.	.	.	.	.	1g/	u-
=19-	=19-	=19-	=19-	=19-	=19-	=19-	=19-
2A/	pa-	2r	.	1e	pa-	.	.
1B-X	-ra-	1e	pa-	.	.	2g/	-bi
.	.	.	.	1fny	-ra-	2cc\	crux
!	!	!	!	!	!	!LO:SIC:v:t=custos g	!
2A/	-ta	1d\	-ra-	.	.	2f/	pa-
!	!	!	!	!	!	!LO:LB:g=original	!
=20-	=20-	=20-	=20-	=20-	=20-	=20-	=20-
1G	e-	.	.	2d/	-ta	2g/	-ra-
.	.	2c/	-ta	2.f\	e-	2a/	-ta
0F	-rat	1B-X	e-	.	.	1b-X	e-
*	*Xij	*	*	*	*	*	*
.	.	.	.	8e/	.	.	.
!	!	!	!	!LO:SIC:v:t=custos e	!	!	!
.	.	.	.	8d/	.	.	.
!	!	!	!	!LO:LB:g=original	!	!	!
.	.	.	.	2e/	.	.	.
=21-	=21-	=21-	=21-	=21-	=21-	=21-	=21-
.	.	1c	-rat	1f	-rat	2.a/	.
.	.	.	.	.	.	4bny/	.
1.c	ex-	2r	.	2r	.	0cc	-rat
*	*	*	*	*	*	*	*Xij
.	.	1f\	ex-	1a\	ex-	.	.
=22-	=22-	=22-	=22-	=22-	=22-	=22-	=22-
.	.	.	.	.	.	.	.
!	!	!LO:SIC:v:t=custos e	!	!	!	!	!
2c\	-cla-	2e\	-cla-	2g\	-cla-	.	.
!	!	!LO:LB:g=original	!	!	!	!	!
1c	-ma-	1e	-ma-	1g	-ma-	2r	.
.	.	.	.	.	.	1gg\	ex-
=23-	=23-	=23-	=23-	=23-	=23-	=23-	=23-
2C/	-uit	2g\	-uit	2e/	-uit	.	.
*	*	*	*ij	*	*	*	*
1c	ex-	1e	ex-	1cc	ex-	2gg\	-cla-
.	.	.	.	.	.	1gg	-ma-
2c\	-cla-	2e\	-cla-	2cc\	-cla-	.	.
=24-	=24-	=24-	=24-	=24-	=24-	=24-	=24-
1e	-ma-	0g	-ma-	1cc	-ma-	2ee\	-uit
.	.	.	.	.	.	1gg	ex-
1ryy	.	.	.	1.b	-uit	.	.
.	.	.	.	.	.	2gg\	-cla-
=25-	=25-	=25-	=25-	=25-	=25-	=25-	=25-
!LO:SIC:v:t=custos c	!	!	!	!	!	!	!
2E/	-uit	2e\	-vit	.	.	1gg	-ma-
!LO:LB:g=original	!	!	!	!	!	!	!
*	*	*	*Xij	*	*	*	*
2c\	et	2e\	et	2cc\	et	.	.
0c	di-	0e	di-	0g	di-	2ee\	-uit
.	.	.	.	.	.	2cc\	et
=26-	=26-	=26-	=26-	=26-	=26-	=26-	=26-
.	.	.	.	.	.	1cc	di-
0G	-xit	0d	-xit	1g	-xit	1b	-xit
=27-	=27-	=27-	=27-	=27-	=27-	=27-	=27-
.	.	.	.	2r	.	1g	O
.	.	.	.	2g\	O	.	.
1r	.	1r	.	1f	bo-	1a	bo-
=28-	=28-	=28-	=28-	=28-	=28-	=28-	=28-
1r	.	1r	.	1d	-na	1b	-na
1c	O	2r	.	2c/	crux	1cc	crux
*	*	*	*	*	*ij	*	*
.	.	2c/	O	2e/	O	.	.
=29-	=29-	=29-	=29-	=29-	=29-	=29-	=29-
1B-X	bo-	1d	bo-	1f	bo-	0r	.
1G	-na	1e	-na	1g	-na	.	.
=30-	=30-	=30-	=30-	=30-	=30-	=30-	=30-
*	*	*	*	*	*	*	*ij
1F	crux	2f\	crux	2a\	crux	1cc	ex-
*	*	*	*	*	*Xij	*	*
.	.	2a\	di-	2cc\	di-	.	.
1r	.	2f\	-u	2a\	-u	1dd	-cla-
.	.	2g\	de-	2b\	de-	.	.
=31-	=31-	=31-	=31-	=31-	=31-	=31-	=31-
2r	.	2c/	-ſi-	2cc\	-ſi-	1ee	-ma-
!	!	!	!	!LO:SIC:v:t=custos B	!	!	!
2A/	di-	2e\	-de-	1c	-de-	.	.
!	!	!	!	!LO:LB:g=original	!	!	!
2F/	-u	1d	-ra-	.	.	2ff\	-vit
2G/	de-	.	.	4B/	-ra	2dd\	et
.	.	.	.	4A/	.	.	.
=32-	=32-	=32-	=32-	=32-	=32-	=32-	=32-
2C/	-ſi-	1c	-ta	1G	.	1ee	di-
2E/	-de-	.	.	.	.	.	.
1D	-ra-	2r	.	1A	ta	1ff	.
.	.	2d\	O	.	.	.	.
=33-	=33-	=33-	=33-	=33-	=33-	=33-	=33-
2C/	-ta	1e	bo-	1c	o	1gg	-xit
2c\	o	.	.	.	.	.	.
!	!	!	!	!	!	!LO:SIC:v:t=custos g	!
1B-X	bo-	1f	-na	1d	bo-	1r	.
!	!	!	!	!	!	!LO:LB:g=original	!
=34-	=34-	=34-	=34-	=34-	=34-	=34-	=34-
!	!	!LO:SIC:v:t=custos a	!	!	!	!	!
1G	-na	1g	crux	1e	-na	2r	.
!	!	!LO:LB:g=original	!	!	!	!	!
.	.	.	.	.	.	2g/	O
2F/	crux	2r	.	1f	crux	1a	bo-
2f\	di-	2a\	di-	.	.	.	.
=35-	=35-	=35-	=35-	=35-	=35-	=35-	=35-
2d\	-u	2f\	-u	1r	.	1b	-na
!LO:SIC:v:t=custos A	!	!	!	!	!	!	!
2e\	de-	2g\	de-	.	.	.	.
!LO:LB:g=original	!	!	!	!	!	!	!
2A/	-ſi-	2c/	-ſi-	1a	di-	1cc	crux
*	*	*	*	*	*	*	*Xij
2c\	-de-	2e\	-de-	.	.	.	.
=36-	=36-	=36-	=36-	=36-	=36-	=36-	=36-
1B-X	-ra-	1d	-ra-	2f\	-u	1r	.
.	.	.	.	2g\	de-	.	.
1A	-ta	1e	-ta	2c/	-ſi-	2r	.
.	.	.	.	2e/	-de-	2ee\	di-
=37-	=37-	=37-	=37-	=37-	=37-	=37-	=37-
1r	.	1r	.	2.f\	-ra-	2cc\	-u
.	.	.	.	.	.	2dd\	de-
.	.	.	.	8e/	.	.	.
.	.	.	.	8d/	.	.	.
1r	.	2r	.	4e/	.	2g/	-ſi-
.	.	.	.	4f\	.	.	.
*	*	*	*ij	*	*	*	*
.	.	2e\	crux	1g\	.	2b/	-de-
=38-	=38-	=38-	=38-	=38-	=38-	=38-	=38-
1r	.	2c/	de-	.	.	1a	-ra-
.	.	2d\	-si-	4f\	.	.	.
.	.	.	.	4e/	.	.	.
1r	.	2G/	-de-	4d/	.	1g	-ta
.	.	.	.	4G/	.	.	.
.	.	2Bny/	-ra-	2.g\	.	.	.
=39-	=39-	=39-	=39-	=39-	=39-	=39-	=39-
1D	et	1A	-ta	.	.	2r	.
*	*	*	*Xij	*	*	*	*
.	.	.	.	8f\	.	.	.
.	.	.	.	8e\	.	.	.
.	.	.	.	2f#X\	.	2a/	et
1G	iam	2G/	.	2.g\	-ta	1b	iam
.	.	2d\	et	.	.	.	.
.	.	.	.	4a\	.	.	.
=40-	=40-	=40-	=40-	=40-	=40-	=40-	=40-
2r	.	1g	iam	1b	.	2r	.
*	*ij	*	*	*	*	*	*ij
2G/	et	.	.	.	.	2b/	et
1c	iam	2r	.	2r	.	1ee	iam
*	*Xij	*	*	*	*	*	*Xij
!	!	!	!	!LO:SIC:v:t=custos g	!	!	!
.	.	2g\	con-	2e/	et	.	.
!	!	!	!	!LO:LB:g=original	!	!	!
=41-	=41-	=41-	=41-	=41-	=41-	=41-	=41-
2r	.	1e	-cu-	1g	iam	2r	.
2c\	con-	.	.	.	.	2ee\	con-
1A	-cu-	2e\	-piſ-	1r	.	1cc	-cu-
.	.	1f\	-cen-	.	.	.	.
=42-	=42-	=42-	=42-	=42-	=42-	=42-	=42-
2A/	-piſ-	.	.	0r	.	2cc\	-piſ-
1c	-cen-	2e\	-ti	.	.	1ee	-cen-
.	.	2.g\	a-	.	.	.	.
2Bny\	-ti	.	.	.	.	2dd\	-ti
!	!	!LO:SIC:v:t=custos f	!	!	!	!	!
.	.	4g\	-ni-	.	.	.	.
!	!	!LO:LB:g=original	!	!	!	!	!
=43-	=43-	=43-	=43-	=43-	=43-	=43-	=43-
2.d\	a-	2f\	-mo	0r	.	2.ff\	a-
.	.	2d\	prae-	.	.	.	.
4d\	-ni-	.	.	.	.	4ff\	-ni-
2c\	-mo	2e\	-pa-	.	.	2ee\	-mo
!	!	!	!	!	!	!LO:SIC:v:t=custos dd	!
2A/	prae-	1f\	-ra-	.	.	2cc\	prae-
!	!	!	!	!	!	!LO:LB:g=original	!
=44-	=44-	=44-	=44-	=44-	=44-	=44-	=44-
2B\	-pa-	.	.	0r	.	2dd\	-pa-
1c	-ra-	4e\	.	.	.	1ee	-ra-
.	.	4d\	.	.	.	.	.
.	.	4e\	.	.	.	.	.
.	.	4f\	.	.	.	.	.
4B\	.	1g\	.	.	.	4dd\	.
!LO:SIC:v:t=custos B	!	!	!	!	!	!	!
4A/	.	.	.	.	.	4cc\	.
!LO:LB:g=original	!	!	!	!	!	!	!
=45-	=45-	=45-	=45-	=45-	=45-	=45-	=45-
4B\	.	.	.	2r	.	4dd\	.
4c\	.	.	.	.	.	4ee\	.
1d\	.	4f\	.	2a\	prae-	1ff	.
.	.	4e\	.	.	.	.	.
.	.	4f\	.	2b\	-pa-	.	.
.	.	4d\	.	.	.	.	.
4c\	.	2g\	.	1cc\	-ra-	4ee\	.
4B\	.	.	.	.	.	4dd\	.
=46-	=46-	=46-	=46-	=46-	=46-	=46-	=46-
*	*	*lig	*	*	*	*	*
1A	.	1c	-ta	.	.	2ee\	.
.	.	.	.	4b\	.	2ff#X\	.
.	.	.	.	4a\	.	.	.
1G	-ta	1d	.	1b	.	2gg\	-ta
.	.	.	.	.	.	1g/	ſe-
*	*	*Xlig	*	*	*	*	*
=47-	=47-	=47-	=47-	=47-	=47-	=47-	=47-
1C	ſe-	1r	.	4e/	-ta	.	.
.	.	.	.	4fny\	.	.	.
.	.	.	.	4g\	.	2.cc\	-cu-
.	.	.	.	4e/	.	.	.
2.F/	-cu-	1c	ſe-	1a	.	.	.
.	.	.	.	.	.	4b/	.
.	.	.	.	.	.	1a/	.
4E/	.	.	.	.	.	.	.
=48-	=48-	=48-	=48-	=48-	=48-	=48-	=48-
1D	.	1f	-cu-	2r	.	.	.
.	.	.	.	2d/	ſe-	2b/	-rus
1C	-rus	2e\	-rus	0g	-cu-	2cc\	et
.	.	2e\	et	.	.	2gg\	gau-
=49-	=49-	=49-	=49-	=49-	=49-	=49-	=49-
2r	.	4e\	gau-	.	.	4gg\	.
.	.	4d\	.	.	.	4ffny\	.
2C/	ſe-	4c/	.	.	.	4ee\	.
.	.	4B/	.	.	.	4dd\	.
1F	-cu-	4A/	.	1a	-rus	4cc\	.
.	.	4B/	.	.	.	4b/	.
.	.	4c/	.	.	.	2a/	.
.	.	4d\	.	.	.	.	.
=50-	=50-	=50-	=50-	=50-	=50-	=50-	=50-
2E/	-rus	1e	.	1r	.	2g/	-des
2A/	et	.	.	.	.	2.cc\	ve-
!	!	!LO:SIC:v:t=custos f	!	!	!	!	!
4A/	gau-	2A/	-dens	2r	.	.	.
!	!	!LO:LB:g=original	!	!	!	!	!
4G/	.	.	.	.	.	4b/	-ni-
!	!	!	!	!	!	!LO:SIC:v:t=custos a	!
4F/	.	2.f\	ve-	2c/	ſe-	2a/	-o
!	!	!	!	!	!	!LO:LB:g=original	!
4E/	.	.	.	.	.	.	.
=51-	=51-	=51-	=51-	=51-	=51-	=51-	=51-
4D/	.	.	.	1f	-cu-	1.a	ad
4E/	.	4e\	-ni-	.	.	.	.
4F/	.	1d	-o	.	.	.	.
4G/	.	.	.	.	.	.	.
!LO:SIC:v:t=custos D	!	!	!	!	!	!	!
1A	.	.	.	2e/	-rus	.	.
!LO:LB:g=original	!	!	!	!	!	!	!
.	.	2c#X/	ad	2a\	et	2e/	te
=52-	=52-	=52-	=52-	=52-	=52-	=52-	=52-
2D/	-des	1d	te	4a\	gau-	2r	.
.	.	.	.	4g\	.	.	.
2.d\	ve-	.	.	4f\	.	2a/	ſe-
.	.	.	.	4e/	.	.	.
.	.	1r	.	4d/	.	1dd	-cu-
4c\	-ni-	.	.	4e/	.	.	.
2B-X\	-o	.	.	4f\	.	.	.
.	.	.	.	4g\	.	.	.
=53-	=53-	=53-	=53-	=53-	=53-	=53-	=53-
1A	ad	0r	.	1a	.	2cc\	-rus
.	.	.	.	.	.	2a/	et
!	!	!	!	!LO:SIC:v:t=custos g	!	!	!
0.G	te	.	.	2d/	-des	4dd\	gau-
.	.	.	.	.	.	4cc\	.
.	.	.	.	2.g\	ve-	4b/	.
.	.	.	.	.	.	4a/	.
=54-	=54-	=54-	=54-	=54-	=54-	=54-	=54-
.	.	1r	.	.	.	2b/	.
.	.	.	.	4f\	-ni-	.	.
.	.	.	.	2e/	-o	2.cc\	.
.	.	2r	.	1d	ad	.	.
.	.	.	.	.	.	8b/	.
.	.	.	.	.	.	8a/	.
.	.	2r	.	.	.	2b/	.
=55-	=55-	=55-	=55-	=55-	=55-	=55-	=55-
0r	.	4g\	ve-	1c	te	1cc	-dens
.	.	4f\	-ni-	.	.	.	.
.	.	2e\	-o	.	.	.	.
.	.	0.d	ad	2.f\	ve-	2r	.
.	.	.	.	.	.	2.dd\	be-
.	.	.	.	4e/	-ni-	.	.
=56-	=56-	=56-	=56-	=56-	=56-	=56-	=56-
0r	.	.	.	2f#X\	-o	.	.
.	.	.	.	.	.	4cc\	-ni-
.	.	.	.	2.g\	ad	2b/	-o
.	.	.	.	.	.	1a	ad
.	.	.	.	8f#\	.	.	.
.	.	.	.	8e\	.	.	.
.	.	.	.	2f#X\	.	.	.
=57||-	=57||-	=57||-	=57||-	=57||-	=57||-	=57||-	=57||-
*M3/1	*	*M3/1	*	*M3/1	*	*M3/1	*
*met(3)	*	*met(3)	*	*met(3)	*	*met(3)	*
1%3r	.	0G	te	0g	te	0b	te
.	.	1r	.	1ryy	.	1ryy	.
=58-	=58-	=58-	=58-	=58-	=58-	=58-	=58-
1G	i-	1g	i-	1%3r	.	1%3r	.
1G	-ta	1g	-ta	.	.	.	.
1A	et	1f	et	.	.	.	.
=59-	=59-	=59-	=59-	=59-	=59-	=59-	=59-
0c	tu	0e	tu	1%3r	.	1%3r	.
1Bny	e-	1d	e-	.	.	.	.
=60-	=60-	=60-	=60-	=60-	=60-	=60-	=60-
1.A	-xul-	1.cny	-xul-	1%3r	.	1%3r	.
2B\	.	2B/	.	.	.	.	.
1c	.	1A	.	.	.	.	.
=61-	=61-	=61-	=61-	=61-	=61-	=61-	=61-
0G	-tas	0B	-tas	1%3r	.	1%3r	.
1F	ſuſ-	1d	ſuſ-	.	.	.	.
=62-	=62-	=62-	=62-	=62-	=62-	=62-	=62-
1.E	-ci-	1.c	-ci-	1%3r	.	1%3r	.
2F/	-pi-	2A/	-pi-	.	.	.	.
!	!	!LO:SIC:v:t=custos c	!	!	!	!	!
1D	-as	1B	-as	.	.	.	.
!	!	!LO:LB:g=original	!	!	!	!	!
=63-	=63-	=63-	=63-	=63-	=63-	=63-	=63-
0C	me	0c	me	1g	i-	1gg	i-
!	!	!	!	!	!	!LO:SIC:v:t=custos ff	!
.	.	.	.	1g	-ta	1gg	-ta
!LO:SIC:v:t=custos G	!	!	!	!	!LO:LB:g=original	!	!
1r	.	1r	.	1a	et	1ff	et
!LO:LB:g=original	!	!	!	!	!	!	!
=64-	=64-	=64-	=64-	=64-	=64-	=64-	=64-
1%3r	.	1%3r	.	0cc	tu	0ee	tu
.	.	.	.	1b	e-	1dd	e-
=65-	=65-	=65-	=65-	=65-	=65-	=65-	=65-
1%3r	.	1%3r	.	1.a	-xul-	1.cc	-xul-
.	.	.	.	2b\	.	2b/	.
.	.	.	.	1cc	.	1a	.
=66-	=66-	=66-	=66-	=66-	=66-	=66-	=66-
1%3r	.	1%3r	.	0g	-tas	0b	-tas
.	.	.	.	1fny	ſuſ-	1dd	ſuſ-
=67-	=67-	=67-	=67-	=67-	=67-	=67-	=67-
1r	.	1r	.	1.e	-ci-	1.cc	-ci-
1r	.	1r	.	.	.	.	.
!	!	!	!	!LO:SIC:v:t=custos d	!	!	!
.	.	.	.	2f\	-pi-	2a/	-pi-
!	!	!	!	!LO:LB:g=original	!	!	!
1G	ſuſ-	1g	ſuſ-	1d	-as	1b	-as
=68-	=68-	=68-	=68-	=68-	=68-	=68-	=68-
1.c	-ci-	1.e	-ci-	0c	me	0cc	me
2A/	-pi-	2f\	-pi-	.	.	.	.
1B	-as	1d	-as	1g	ſuſ-	1dd	ſuſ-
=69-	=69-	=69-	=69-	=69-	=69-	=69-	=69-
1c	me	1g	me	1.e	-ci-	1.cc	-ci-
1r	.	1r	.	.	.	.	.
.	.	.	.	2f\	-pi-	2a/	-pi-
*	*	*	*ij	*	*	*	*
1G	ſuſ-	1g	sus-	1d	-as	1b	-as
=70-	=70-	=70-	=70-	=70-	=70-	=70-	=70-
1.E	-ci-	1.G	-ci-	0c	me	0cc	me
2F/	-pi-	2A/	-pi-	.	.	.	.
1D	-as	1B	-as	1r	.	1r	.
=71||-	=71||-	=71||-	=71||-	=71||-	=71||-	=71||-	=71||-
*M2/1	*	*M2/1	*	*M2/1	*	*M2/1	*
*met(C|)	*	*met(C|)	*	*met(C|)	*	*met(C|)	*
2C/	me	2.c/	me	2r	.	2r	.
*	*	*	*Xij	*	*	*	*
2c\	diſ-	.	.	2g\	diſ-	2cc\	diſ-
.	.	4d\	.	.	.	.	.
2c\	-ci-	4e\	.	2g\	-ci-	2cc\	-ci-
.	.	4f\	.	.	.	.	.
2c\	-pu-	4g\	.	2e/	-pul-	2cc\	-pu-
.	.	4e\	.	.	.	.	.
=72-	=72-	=72-	=72-	=72-	=72-	=72-	=72-
1F	-lum	2.f\	.	1a	-um	1cc	-lum
.	.	4e\	.	.	.	.	.
1G	e-	1d	.	1g	e-	1b	e-
=73-	=73-	=73-	=73-	=73-	=73-	=73-	=73-
2A/	-ius	2r	.	2e/	-ius	2.a/	-ius
2.F/	qui	2c/	diſ-	2.a\	qui	.	.
.	.	.	.	.	.	4b/	.
.	.	2c/	-ci-	.	.	1cc	.
4F/	pe-	.	.	4a\	pe-	.	.
!LO:SIC:v:t=custos D	!	!	!	!	!	!	!
2E/	-pen-	2c/	-pu-	2g\	-pen-	.	.
!LO:LB:g=original	!	!	!	!	!	!	!
=74-	=74-	=74-	=74-	=74-	=74-	=74-	=74-
2D/	-dit	1F	-lum	2.a\	-dit	2r	.
2D/	in	.	.	.	.	2.ff\	qui
.	.	.	.	4b\	in	.	.
!	!	!LO:SIC:v:t=custos a	!	!	!	!	!
1C	te	1G	e-	1cc	te	.	.
!	!	!LO:LB:g=original	!	!	!	!LO:SIC:v:t=custos ee	!
.	.	.	.	.	.	4ff\	pe-
!	!	!	!	!	!	!LO:LB:g=original	!
.	.	.	.	.	.	1ee\	-pen-
=75-	=75-	=75-	=75-	=75-	=75-	=75-	=75-
0r	.	2A/	-ius	2r	.	.	.
.	.	2.c/	qui	2g\	qui	2ee\	-dit
.	.	.	.	2g\	pe-	1dd	in
.	.	4c/	pe-	.	.	.	.
.	.	2B/	-pen-	2g\	-pen-	.	.
=76-	=76-	=76-	=76-	=76-	=76-	=76-	=76-
2r	.	2A/	-dit	1c	-dit	2.ee\	te
2.c\	qui	2A/	in	.	.	.	.
*	*	*	*	*	*	*	*ij
.	.	.	.	.	.	4ff\	qui
!	!	!	!	!LO:SIC:v:t=custos e	!	!	!
.	.	1G	te	1d	in	2gg\	pe-
!	!	!	!	!LO:LB:g=original	!	!	!
4c\	pe-	.	.	.	.	.	.
2B\	-pen-	.	.	.	.	2.dd\	-pen-
=77-	=77-	=77-	=77-	=77-	=77-	=77-	=77-
2A/	-dit	0r	.	2e/	te	.	.
.	.	.	.	.	.	4cc\	-dit
2A/	in	.	.	2.f\	qui	2cc\	in
0G	te	.	.	.	.	2b/	te
.	.	.	.	4f\	pe-	.	.
.	.	.	.	2e/	-pen-	2.cc\	pe-
=78-	=78-	=78-	=78-	=78-	=78-	=78-	=78-
.	.	2r	.	2d/	-dit	.	.
.	.	.	.	.	.	8b/	-pen-
.	.	.	.	.	.	8a/	-dit
.	.	2g\	diſ-	2d/	in	2b/	in
1r	.	2g\	-ci-	2.c/	te	1cc	te
*	*	*	*	*	*	*	*Xij
.	.	2g\	-pu-	.	.	.	.
.	.	.	.	4d/	.	.	.
=79-	=79-	=79-	=79-	=79-	=79-	=79-	=79-
2r	.	1c	-lum	4e/	.	2r	.
.	.	.	.	4d/	.	.	.
*	*ij	*	*	*	*	*	*
2.c\	qui	.	.	4e/	.	2gg\	diſ-
.	.	.	.	4f\	.	.	.
.	.	1d	e-	1g	.	2gg\	-ci-
4c\	pe-	.	.	.	.	.	.
2B\	-pen-	.	.	.	.	2gg\	-pu-
=80-	=80-	=80-	=80-	=80-	=80-	=80-	=80-
2A/	-dit	1e	-ius	2r	.	1cc	-lum
2A/	in	.	.	2.cc\	qui	.	.
1G	te	1r	.	.	.	1dd	e-
*	*Xij	*	*	*	*	*	*
.	.	.	.	4cc\	pe-	.	.
.	.	.	.	2b\	-pen-	.	.
=81-	=81-	=81-	=81-	=81-	=81-	=81-	=81-
2.F/	qui	1r	.	2cc\	-dit	2a/	-ius
.	.	.	.	2.a\	qui	2.cc\	qui
4F/	pe-	.	.	.	.	.	.
2E/	-pen-	2r	.	.	.	.	.
.	.	.	.	4a\	pe-	4b/	pe-
2C/	-dit	2.c/	qui	2g\	-pen-	2ee\	-pe(n)-
=82-	=82-	=82-	=82-	=82-	=82-	=82-	=82-
0D	in	.	.	2f#X\	-dit	2a/	-dit
.	.	4c/	pe-	.	.	.	.
.	.	2B/	-pen-	1g	in	2.dd\	in-
.	.	2A/	-dit	.	.	.	.
.	.	.	.	.	.	8cc\	.
.	.	.	.	.	.	8b\	.
.	.	2A/	in	2f#X\	.	2a/	.
=83-	=83-	=83-	=83-	=83-	=83-	=83-	=83-
00G	te.	00G	te.	00g	te.	00b	-te.
=84-	=84-	=84-	=84-	=84-	=84-	=84-	=84-
.	.	.	.	.	.	.	.
=-	=-	=-	=-	=-	=-	=-	=-
*-	*-	*-	*-	*-	*-	*-	*-
!!!system-decoration: s1,s2,s3,s4
!!!ENC: Andrzej Gręziak
!!!END: 2022-07-03
!!!ENC: Julita Ruszuk
!!!END: 2022-07-08
